teeny/solid/double-caret-up.svg

<svg width="15" height="15" viewBox="0 0 15 15" fill="none" xmlns="http://www.w3.org/2000/svg">
<path fill-rule="evenodd" clip-rule="evenodd" d="M7.5 0.265198L14.7066 8.02618L13.9738 8.70663L7.5 1.73481L1.02617 8.70663L0.293381 8.02618L7.5 0.265198ZM7.5 5.7652L14.7066 13.5262L13.9738 14.2066L7.5 7.23481L1.02617 14.2066L0.293381 13.5262L7.5 5.7652Z" fill="black"/>
</svg>

<svg viewBox="0 0 15 15" xmlns="http://www.w3.org/2000/svg"><path fill-rule="evenodd" d="M7.5.26l7.2 7.76 -.74.68 -6.48-6.98L1 8.69 .26 8 7.46.23Zm0 5.5l7.2 7.76 -.74.68 -6.48-6.98L1 14.19l-.74-.69 7.2-7.77Z"/></svg>
